X:1
T:Litany of the BVM - Agazzari
T:#
%%score 1 2 3
L:1/8
Q:1/4=168
M:none
K:C
V:1 treble nm="Soprano" snm="S"
V:2 treble nm="Alto" snm="A"
V:3 treble-8 nm="Tenor" snm="T"
V:1
"^Litany of the Blessed Virgin Mary""^Agostino Agazzari\n (1578-1640)" z16 | z8 G8- | %2
w: |Ky\-|
 G4 c4 B4 G4- | G4 ^F4 G4 G4- | G4 C4 (c4 _B2 A2 | G6) G2 A4 A4- |[M:4/2] A4 E4 A4 (G2 F2) | %7
w: * ri- e e\-|* lei- son, Chri\-|* ste e\- * *|* lei- son. Ky\-|* ri- e e\- *|
 E8 ^F8 | D4 E4 D6 D2 | E4 G6 G2 A4 | G6 G2 A8 | c4 c2 c2 c4 B4 | A8 ^G8 | A6 A2 A4 A4 | %14
w: lei- son.|Chri- ste au- di-|nos. Chri- ste ex-|au- di nos.|Pa- ter de coe- lis|De- us,|mi- se- re- re|
 (^G2 A4 G2) A8 | z16 | z16 | z16 | z16 | G4 G2 G2 G8- | G4 G4 G8 | G4 A8 G4 | F4 F4 E8 | %23
w: no\- * * bis.|||||Spi- ri- tus san\-|* cte De-|us, mi- se-|re- re no-|
 D8 A4 A4 | A6 A2 A4 B4- | B4 c4 B8 | B4 c8 d4 | A6 A2 A8 | B8 G6 D2 | E8 D8 | E4 G4 F6 F2 | %31
w: bis. San- cta|Tri- ni- tas u\-|* nus De-|us, mi- se-|re- re no-|bis. San- cta|Ma- ri-|a, o- ra pro|
 E8 D8 | z16 | z8 z4 D4- | D2 D2 E4 D8 | E4 G2 A2 B4 d4 | (c2 BA B2) G2 A8 | z8 A8 | A8 A8 | %39
w: no- bis.||O\-|* ra pro no-|bis. San- cta Vir- go|vir\- * * * gi- num,|Ma-|ter Chri-|
 A4 ^F6 F2 G4 | (G4 ^F4) G4 D4 | D2 D2 D6 E2 D3 D | D8 z8 | E4 E2 F2 E3 E E4 | %44
w: sti, o- ra pro|no\- * bis. Ma-|ter di- vi- nae gra- ti-|ae,|Ma- ter pu- ris- si- ma,|
 z2 ^F3 F G2 F3 F F4 | G4 G2 G2 =F4 E4 | E4 G2 A2 G2 F2 G4 | G8 z8 | z4 G4 E2 C2 F4- | %49
w: Ma- ter ca- stis- si- ma,|o- ra pro no- bis.|Ma- ter in- vi- o- la-|ta,|o- ra pro no\-|
 F2 E2 D4 z8 | z16 | D6 E2 ^FF G4 F2 | G8 z8 | z4 D2 D2 E2 G2 E4 | D4 B4 c2 A2 (A2 ^G2) | %55
w: * * bis.||Ma- ter ad- mi- ra- bi-|lis,|Ma- ter Sal- va- to-|ris, o- ra pro no\- *|
 A8 c6 B2 | A2 G2 F3 F E2 G4 G2 | F2 E2 A4 G4 z4 | z8 d4 B3 A | G4 G4 z4 G4- | G2 E2 (A8 G4) | %61
w: bis. Vir- go|pru- den- tis- si- ma, Vir- go|ve- ne- ran- da,|o- ra pro|no- bis. Vir\-|* go po\- *|
 A4 c6 A2 _B4 | A8 z8 | z2 F2 F2 G4 (F4 E2) | F8 A3 G F2 D2 | G3 G ^F4 A4 D2 A=F | %66
w: tens, Vir- go cle-|mens,|o- ra pro no\- *|bis. Spe- cu- lum ju-|sti- ti- ae, Se- des sa- pi-|
 G3 G G4 A2 G2 A2 AA | A3 A[Q:1/4=165] A4[Q:1/4=162] z2[Q:1/4=159] G2[Q:1/4=157] G2[Q:1/4=155] D2 | %68
w: en- ti- ae, Cau- sa no- strae lae-|ti- ti- ae, o- ra pro|
[Q:1/4=152] E4[Q:1/4=150] ^F4 ||[M:3/1][Q:1/4=336] z16 x8 | %70
w: no- bis.||
[M:3/1][Q:1/4=336][Q:1/4=336][Q:1/4=336] z16 x8 | z8 z8 G8 | G16 A8 | B12 B4 B8 | d16 d8 | %75
w: |Vas|ho- no-|ra- bi- le,|Vas in-|
 e8 e8 e8 | c16 c8 | d16 d8 | d8 B8 G8 | (G12 A4 B4 c4 | d16) B8 | z8 G8 F8 | E12 E4 E8 | %83
w: si- gne de-|vo- ti-|o- nis,|o- ra pro|no\- * * *|* bis.|Ro- sa|my- sti- ca,|
 A8 A8 F8 | E12 E4 E8 | A8 A8 A8 |[Q:1/4=331] G12[Q:1/4=325] G4[Q:1/4=320] G8 |[Q:1/4=308] z16 x8 | %88
w: Tur- ris Da-|vi- di- ca,|Tur- ris e-|bur- ne- a,||
[Q:1/4=300] z16 x8 ||[Q:1/4=168] z4 C6 D2 E3 E | %90
w: |Do- mus au- re-|
[M:4/2][Q:1/4=168][Q:1/4=168][Q:1/4=168] D4 z2 D4 D2 D4 | D8 D4 F4- | F2 F2 E4 D8 | A8 c3 c B3 B | %94
w: a, Foe- de- ris|ar- ca, Ja\-|* nu- a coe-|li, Stel- la ma- tu-|
 A4 A4 z2 A2 GE G2- | (G2 ^F2) G4 z4 D4- | D2 E2 F2 A2 D8 | E4 z2 G2 G2 GG A2 B2 | c4 B4 ^G4 G4 | %99
w: ti- na, o- ra pro no\-|* * bis. Sa\-|* lus in- fir- mo-|rum, Re- fu- gi- um pec- ca-|to- rum, Con- so-|
 ^G6 G2 A6 c2 | B4 B4 z2 G2 c2 cc | A2 AA c4 B4 z4 | z8 z4 A4 | d8 A4 A2 B2 | c8 B4 z2 B2 | %105
w: la- trix af- fli-|cto- rum, Au- xi- li- um|Chri- sti- a- no- rum,|Re-|gi- na An- ge-|lo- rum, Re-|
 c4 c2 B2 A2 G2 F4 | E2 G2 F2 E2 D4 D4 | z4 E4 A4 A2 G2 | F4 F4 A4 G4 | z4 B2 B2 c8 | %110
w: gi- na Pa- tri- ar- cha-|rum et Pro- phe- ta- rum,|Re- gi- na A-|po- sto- lo- rum,|Con- fes- so-|
 c2 A2 A3 A A8 | z2 A2 A4 B2 B2 c2 c2 | B6 B2 B4[Q:1/4=166] d4- | %113
w: rum, et Vir- gi- num,|Re- gi- na San- cto- rum|o- mni- um, o\-|
[Q:1/4=163] d4[Q:1/4=161] A4[Q:1/4=158] c4[Q:1/4=156] (G3[Q:1/4=155] A | %114
w: * ra pro no\- *|
[Q:1/4=153] B3[Q:1/4=152] A[Q:1/4=149] G8[Q:1/4=146] ^F4) |[Q:1/4=145] G16 || z16 | z8 d8- | %118
w: |bis.||A\-|
 d4 B4 G8 | E4 E4 A4 A2 A2 | F4 F4 E8 | G4 G6 E2 A2 F2 | E6 E2 D4 ^F4- | F4 ^F4 G4 G2 G2 | %124
w: * gnus De-|i, qui tol- lis pec-|ca- ta mun-|di, par- ce no- bis|Do- mi- ne. A\-|* gnus De- i, qui|
 A4 A2 G2 A4 G4 | F8 E8 | z16 | z8 G8- | G4 G4 G8 | F8 z8 | z4 G4 E4 E2 G2 | A4 A4 F8 | E8 z4 G4- | %133
w: tol- lis pec- ca- ta|mun- di.||A\-|* gnus De-|i,|qui tol- lis pec-|ca- ta mun-|di, mi\-|
 G4 G4 G8 | D4[Q:1/4=164] d8[Q:1/4=159] d4 |[Q:1/4=154] d8[Q:1/4=150] ^F4[Q:1/4=147] (G4- | %136
w: * se- re-|re, mi- se-|re- re no\-|
[Q:1/4=144] G4[Q:1/4=141] ^F4)[Q:1/4=140] G16 |] %137
w: * * bis.|
V:2
 z16 | G12 D4 | (E6 F2 G4) D4 | D8 D8 | C8 F,4 F4- | F4 E4 F8 |[M:4/2] z16 | z8 z4 D4 | %8
w: |Ky- ri-|e * * e-|lei- son.|Chri- ste e\-|* lei- son.||Chri-|
 B,4 C8 B,4 | C4 E6 E2 F4 | F6 E2 F8 | F4 F2 F2 E4 E4 | E12 E4 | F6 F2 F4 E4 | E8 E8 | %15
w: ste au- di|nos. Chri- ste ex-|au- di nos.|Pa- ter de coe- lis|De- us,|mi- se- re- re|no- bis.|
 E4 E2 E2 E4 F4 | D4 E4 F8 | E8 E6 C2 | D4 D4 D8 | E8 E4 E2 E2 | E4 D4 E8 | E4 C4 D4 E4- | %22
w: Fi- li Re- dem- ptor|mun- di De-|us, mi- se-|re- re no-|bis. Spi- ri- tus|san- cte De-|us, mi- se- re\-|
 E2 D2 (D8 ^C4) | D8 ^F4 F4 | ^F6 F2 F4 G4- | G4 G4 G8 | G8 G4 G4 | ^F2 F2 (G8 F4) | G8 z8 | z16 | %30
w: * re no\- *|bis. San- cta|Tri- ni- tas u\-|* nus De-|us, mi- se-|re- re no\- *|bis.||
 z4 E6 D2 D4 | (D4 ^C4) D4 A,4- | A,4 B,4 C4 D4 | E6 E2 D4 G,4 | B,4 C4 (C6 B,2) | C4 E2 F2 G4 A4 | %36
w: O- ra pro|no\- * bis. San\-|* cta De- i|Ge- ni- trix, o-|ra pro no\- *|bis. San- cta Vir- go|
 G6 E2 F2 D2 D2 C2 | B,8 A,4 E4- | E4 F4 E8 | E4 D6 D2 E4 | D8 D8 | z16 | %42
w: vir- gi- num, o- ra pro|no- bis. Ma\-|* ter Chri-|sti, o- ra pro|no- bis.||
 z2 G,2 A,2 B,4 (A,4 ^G,2) | A,2 ^C3 C D2 C3 C C4 | z2 D3 D D2 D3 D D4 | E4 D2 C2 (C2 B,2) C4 | %46
w: O- ra pro no\- *|bis. Ma- ter pu- ris- si- ma,|Ma- ter ca- stis- si- ma,|o- ra pro no\- * bis.|
 z2 G2 E2 F2 E2 D2 E4 | E4 D4 B,2 E2 D2 C2 | D4 D4 z8 | z8 z4 D4- | D2 C2 B,4 A,6 A,2 | B,8 z8 | %52
w: Ma- ter in- vi- o- la-|ta, Ma- ter in- te- me-|ra- ta,|Ma\-|* ter a- ma- bi-|lis,|
 z4 D2 D2 E2 G2 E4 | D4 B,2 B,2 C2 E2 (C2 B,A, | B,4) B,2 G2 G2 F2 E4 | E4 E6 D2 C4- | %56
w: Ma- ter cre- a- to-|ris, Ma- ter Sal- va- to\- * *|* ris, o- ra pro no-|bis. Vir- go pru\-|
 C2 C2 C3 B, C2 E4 D2 | C2 B,2 (C2 D2) E2 G4 F2 | E2 D2 E4 D8 | D4 E3 E F4 E4 | z16 | %61
w: * den- tis- si- ma, Vir- go|ve- ne- ran\- * da, Vir- go|prae- di- can- da,|o- ra pro no- bis.||
 E6 C2 (F6 E2) | F4 C4 C2 D2 C4 | C2 C2 D2 D2 C8 | C4 C3 B, A,2 C2 D4- | D2 ^C2 D4 F4 F2 DD | %66
w: Vir- go cle\- *|mens, Vir- go fi- de-|lis, o- ra pro no-|bis. Spe- cu- lum ju- sti\-|* ti- ae, Se- des sa- pi-|
 E3 E E4 F2 G2 F2 FE | ^F3 F D4 z8 | z8 ||[M:3/1] D16 D8 |[M:3/1] E16 F8 | G8 G8 E8 | D16 C8 | %73
w: en- ti- ae, Cau- sa no- strae lae-|ti- ti- ae.||Vas spi-|ri- tu-|a- le, Vas|ho- no-|
 D16 D8 | D24 | z8 G8 G8 | A8 A8 A8 | ^F16 F8 | G16 E8 | G8 E8 D8 | ^F16 G8 | z16 x8 | z16 x8 | %83
w: ra- bi-|le,|Vas in-|si- gne de-|vo- ti-|o- nis,|o- ra pro|no- bis.|||
 F8 F8 D8 | ^C12 C4 C8 | E8 E8 F8 | D12 D4 D8 | D8 E8 C8 | D16 E8 || z4 E6 D2 C3 C | %90
w: Tur- ris Da-|vi- di- ca,|Tur- ris e-|bur- ne- a,|o- ra pro|no- bis.|Do- mus au- re-|
[M:4/2] B,4 B,6 B,2 A,4 | B,8 B,4 D4- | D2 D2 E4 F8 | F4 E4 E4 E2 E2 | E4 E2 E2 D2 C2 E4 | D8 z8 | %96
w: a, Foe- de- ris|ar- ca, Ja\-|* nu- a coe-|li, Stel- la ma- tu-|ti- na, o- ra pro no-|bis.|
 z16 | z2 G2 G2 GG E2 C2 (EF G2- | G2 ^F2) G4 z4 B,2 E2 | E6 E2 E4 ^F4 | G4 G2 B,2 E2 EE C2 EE | %101
w: |Re- fu- gi- um pec- ca- to\- * *|* * rum, Con- so-|la- trix af- fli-|cto- rum, Au- xi- li- um Chri- sti- a-|
 D4 E4 z4 z2 G2 | F3 E E4 ^F8 | z4 G4 ^F8 | A4 E2 ^F2 (^G2 A4 G2) | A4 z4 z8 | %106
w: no- rum, o-|ra pro no- bis.|Re- gi-|na An- ge- lo\- * *|rum,|
 z2 G,2 A,2 C2 B,4 B,2 B,2 | E4 E2 D2 C4 C4 | F4 D2 D2 E6 E2 | D8 E2 E2 G4 | C2 E2 F3 F E4 ^C4 | %111
w: et Pro- phe- ta- rum, Re-|gi- na A- po- sto-|lo- rum, et Mar- ty-|rum, Con- fes- so-|rum, et Vir- gi- num, Re-|
 E4 A,4 z2 D2 G2 G2 | G6 G2 G8 | F8 C4 E4 | D16 | D16 || z16 | G12 ^F4 | D8 E4 E4 | %119
w: gi- na San- cto- rum|o- mni- um,|o- ra pro|no-|bis.||A- gnus|De- i, qui|
 G4 G2 G2 C4 C4 | D8 G8 | z16 | z8 z4 D4- | D4 D4 D4 D2 E2 | F4 F2 G2 F4 E4 | D8 C8 | %126
w: tol- lis pec- ca- ta|mun- di.||A\-|* gnus De- i, qui|tol- lis pec- ca- ta|mun- di,|
 z4 z2 E2 G4 F2 E2 | D6 D2 E8 | E4 D4 E8 | C8 z4 F4 | D4 D2 D2 G4 E4 | (D2 CB, C8 B,4) | C4 E8 E4 | %133
w: ex- au- di nos,|Do- mi- ne.|A- gnus De-|i, qui|tol- lis pec- ca- ta|mun\- * * * *|di, mi- se-|
 E8 D8 | z4 B,8 D4 | G4 D4 D8- | D8 D16 |] %137
w: re- re,|mi- se-|re- re no\-|* bis.|
V:3
 z8 G8- | G4 c4 B8 | (c2 BA G2 A2 B8) | A8 B8 | e8 A4 F4 | c8 c4 c4 | %6
w: Ky\-|* ri- e|e\- * * * * *|lei- son.|Chri- ste e-|lei- son. Ky-|
[M:4/2][K:treble-8] F4 (c6 BA) d4- | d4 ^c4 d8 | z16 | z4 c6 c2 A4 | _B4 c4 F8 | A4 A2 A2 A4 E4 | %12
w: ri- e * * e\-|* lei- son.||Chri- ste ex-|au- di nos.|Pa- ter de coe- lis|
 c8 B8 | d6 d2 d4 A4 | B8 ^c4 c4- | c2 ^c2 c4 c4 d4 | B4 ^c4 d8 | =c8 c4 A4 | B2 G2 (c8 B4) | %19
w: De- us,|mi- se- re- re|no- bis. Fi\-|* li Re- dem- ptor|mun- di De-|us, mi- se-|re- re no\- *|
 c8 c4 c2 c2 | c4 B4 c8 | c4 F8 G4 | _B6 F2 A8 | D8 d4 d4 | d6 d2 d4 d4- | d4 e4 d8 | d4 e8 d4 | %27
w: bis. Spi- ri- tus|san- cte De-|us, mi- se-|re- re no-|bis. San- cta|Tri- ni- tas u\-|* nus De-|us, mi- se-|
 d4 e4 d8 | d4 d6 G2 B4 | (c12 B4) | c8 z8 | z8 z4 ^F4- | F4 G4 A4 B4 | c6 c2 B4 B4 | G4 E4 G8 | %35
w: re- re no-|bis. San- cta Ma-|ri\- *|a,|San\-|* cta De- i|Ge- ni- trix, o-|ra pro no-|
 C4 c2 A2 G4 F4 | E6 E2 D2 F2 F2 A2 | (A4 ^G4) A4 ^c4- | c4 d4 =c8 | c4 A6 A2 c4 | A8 B8 | %41
w: bis. San- cta Vir- go|vir- gi- num, o- ra pro|no\- * bis. Ma\-|* ter Chri-|sti, o- ra pro|no- bis.|
 B4 B2 A2 B2 c2 B3 B | B4 z2 d2 G2 A2 B4 | ^c4 z4 z8 | A4 A2 _B2 A3 A A4 | c4 d2 e2 d4 G4 | %46
w: Ma- ter di- vi- nae gra- ti-|ae, o- ra pro no-|bis.|Ma- ter ca- stis- si- ma,|o- ra pro no- bis.|
 c4 c2 A2 c2 d2 c4 | c4 B4 d2 c2 B2 A2 | B4 B4 e4 cA (d2- | d2 ^c2) d4 z8 | z8 z4 d4- | %51
w: Ma- ter in- vi- o- la-|ta, Ma- ter in- te- me-|ra- ta, o- ra pro no\-|* * bis.|Ma\-|
 d2 c2 B3 G A6 A2 | G4 B2 B2 c2 e2 c4 | B4 G2 G2 E2 C2 c4 | G4 d4 e2 d2 B4 | A8 z8 | z16 | %57
w: * ter ad- mi- ra- bi-|lis, Ma- ter cre- a- to-|ris, Ma- ter Sal- va- to-|ris, o- ra pro no-|bis.||
 z8 z2 e4 d2 | c2 B2 c4 B4 G4 | B3 B (c6 B2) c4 | e6 c2 d8 | c8 A2 F2 G4 | F4 A4 A2 _B2 A4 | %63
w: Vir- go|prae- di- can- da, o-|ra pro no\- * bis.|Vir- go po-|tens, Vir- go cle-|mens, Vir- go fi- de-|
 A2 A2 _B6 A2 G4 | A8 z8 | z4 A4 D2 d4 f2 | c3 c c4 c2 c2 c2 d^c | d3 d d2 d2 d2 e4 (d2- | %68
w: lis, o- ra pro no-|bis.|Se- des sa- pi-|en- ti- ae, Cau- sa no- strae lae-|ti- ti- ae, o- ra pro no\-|
 d2 ^c2) d4 ||[M:3/1] B16 A8 |[M:3/1][K:treble-8] c16 d8 | e8 e8 c8 | B16 A8 | G12 G4 G8 | B16 B8 | %75
w: * * bis.|Vas spi-|ri- tu-|a- le, Vas|ho- no-|ra- bi- le,|Vas in-|
 c8 c8 c8 | A16 A8 | A16 A8 | G8 B8 c8 | (c12 B4 A4 G4 | A16) B8 | e16 d8 | ^c12 c4 c8 | d8 d8 F8 | %84
w: si- gne de-|vo- ti-|o- nis,|o- ra pro|no\- * * *|* bis.|Ro- sa|my- sti- ca,|Tur- ris Da-|
 A12 A4 A8 | ^c8 c8 d8 | B12 B4 B8 | G8 C8 c8 | B16 c8 || z16 |[M:4/2][K:treble-8] z4 G6 G2 ^F4 | %91
w: vi- di- ca,|Tur- ris e-|bur- ne- a,|o- ra pro|no- bis.||Foe- de- ris|
 G8 G4 A4- | A2 A2 A4 A8 | d4 c6 A2 B3 B | c4 c2 c2 B2 A2 (c3 B) | A4 B4 B6 A2 | G4 F4 G8 | C8 z8 | %98
w: ar- ca, Ja\-|* nu- a coe-|li, Stel- la ma- tu-|ti- na, o- ra pro no\- *|* bis. Sa- lus|in- fir- mo-|rum,|
 z8 B4 B4 | B6 B2 c4 c4 | d8 G2 E2 A2 AA | F2 FF G4 G2 B2 d2 e2- | e2 (d4 ^c2) d8 | z4 B4 d8 | %104
w: Con- so-|la- trix af- fli-|cto- rum, Au- xi- li- um|Chri- sti- a- no- rum, o- ra pro|* no\- * bis.|Re- gi-|
 A4 c2 d2 e4 e4 | z2 c2 e2 E2 z2 G2 A2 B2 | c2 C2 z4 z4 z2 G2 | c4 c2 B2 A4 A4 | d4 A2 B2 c3 c c4 | %109
w: na An- ge- lo- rum,|Re- gi- na Pa- tri- ar-|cha- rum Re-|gi- na A- po- sto-|lo- rum, et Mar- ty- rum,|
 z4 G2 G2 G4 E2 E2 | A6 d2 ^c2 e2 e4 | ^c2 c2 d8 e4 | d6 d2 d8 | z4 d4 e4 c4 | (B8 A8) | B16 || %116
w: Con- fes- so- rum, et|Vir- gi- num, Re- gi-|na San- cto- rum|o- mni- um,|o- ra pro|no\- *|bis.|
 d12 B4 | G8 A4 A4 | B4 B2 B2 c8- | c4 B4 (A2 B2 c4- | c4 B4) c4 e4- | e4 d4 e4 d4 | d6 ^c2 d8 | %123
w: A- gnus|De- i, qui|tol- lis pec- ca\-|* ta mun\- * *|* * di, par\-|* ce no- bis|Do- mi- ne.|
 A4 A4 B4 B2 c2 | c4 c2 c2 c4 c4 | A8 A4 c4 | e4 d2 c2 (B4 c4-) | c4 B4 c8 | z8 z4 c4 | %129
w: A- gnus De- i, qui|tol- lis pec- ca- ta|mun- di, ex-|au- di nos, Do\- *|* mi- ne.|Qui|
 A4 A2 c2 d4 d4 | B4 B2 B2 c4 c2 c2 | F6 F2 D8 | C4 c8 c4 | c8 B8- | B8 z4 B4- | B4 B4 A4 G4 | %136
w: tol- lis pec- ca- ta|mun- di, qui tol- lis pec-|ca- ta mun-|di, mi- se-|re- re,|* mi\-|* se- re- re|
 A8 B16 |] %137
w: no- bis.|

